X:1
T:Matrimony
T:Matrimony
T:Courtesy of the Cyber Hymnal (http://www.cyberhymnal.org)
T:Courtesy of the Cyber Hymnal (http://www.cyberhymnal.org)
Z:Courtesy of the Cyber Hymnal (http://www.cyberhymnal.org)
%%score { ( 1 2 ) ( 3 4 ) }
L:1/8
M:1/4
K:Eb
V:1 treble nm="P1"
V:2 treble 
V:3 bass nm="P2"
V:4 bass 
V:1
"^Editor: John Henry Fowler""^( Revision: 12-2-2007 )""^q = 120" G2 |[M:3/4] G2 A2 B2 | B4 F2 | %3
"^( 1889 )" A6 | A4 G2 | G4 F2 | E4 F2 |"^John Stainer""^( 1840 - 1901 )" G6- | G4 B2 | e4 d2 | %10
 c4 d2 | c6 | B4 B2 | A4 C2 | E4 D2 | E6- |[M:2/4] E4 |] %17
V:2
 G2 |[M:3/4] G4 G2 | F4 F2 | E6 | D4 E2 | C4 C2 | B,2 C2 D2 | E6- | E4 F2 | E4 G2 | G4 ^F2 | G6 | %12
 G4 E2 | E2 D2 C2 | C2 B,2 A,2 | G,6- |[M:2/4] G,4 |] %17
V:3
 B,2 |[M:3/4] E4 E2 | D4 D2 | C6 | _C4 B,2 | A,4 A,2 | G,4 B,2 | B,6- | B,4 B,2 | C4 B,2 | %10
 =A,4 D2 | D6 | D2 E2 _D2 | C2 B,2 A,2 | A,2 G,2 F,2 | E,6- |[M:2/4] E,4 |] %17
V:4
 E,2 |[M:3/4] E,4 E,2 | E,4 E,2 | E,6 | F,4 G,2 | A,4 A,,2 | B,,4 B,,2 | E,6- | E,4 D,2 | C,4 D,2 | %10
 E,4 D,2 | G,6 | G,4 G,2 | A,4 A,,2 | B,,4 B,,2 | E,6- |[M:2/4] E,4 |] %17

